packages/dnb-ui-lib/assets/icons/fullscreen_medium.svg

<svg width="24" height="24" viewBox="0 0 24 24" fill="none" xmlns="http://www.w3.org/2000/svg">
<path d="M0.750087 23.25L8.75004 15.25M0.750087 23.25H5.75006M0.750087 23.25V18.25M15.25 8.74995L23.25 0.749996M23.25 0.749996V5.74997M23.25 0.749996H18.25M0.750087 0.749996L8.75004 8.74995M0.750087 0.749996V5.74997M0.750087 0.749996H5.75006M15.25 15.25L23.25 23.25M23.25 23.25H18.25M23.25 23.25V18.25" stroke="black" stroke-width="1.5" stroke-miterlimit="10" stroke-linecap="round" stroke-linejoin="round"/>
</svg>

<svg width="24" height="24" viewBox="0 0 24 24" fill="none" xmlns="http://www.w3.org/2000/svg"><path d="M.75 23.25l8-8m-8 8h5m-5 0v-5m14.5-9.5l8-8m0 0v5m0-5h-5M.75.75l8 8m-8-8v5m0-5h5m9.5 14.5l8 8m0 0h-5m5 0v-5" stroke="#000" stroke-width="1.5" stroke-miterlimit="10" stroke-linecap="round" stroke-linejoin="round"/></svg>
